X: 14101
T: Brisk
N: This seems to be a nameless slip-jig, not obviously tied to either of the ajacent tunes..
%R: slip-jig
B: James Oswald "The Caledonian Pocket Companion" v.1 b.4 p.10 #1
S: https://ia800501.us.archive.org/18/items/caledonianpocket01rugg/caledonianpocket01rugg_bw.pdf
Z: 2020 John Chambers <jc:trillian.mit.edu>
M: 9/8
L: 1/8
K: G
|:\
dBd gag fed | gdB BcB d2e | dBd gag fed | (f/g/a)A ABAc2e :: dBG G2B dBG | (d/c/B/A/)G GBG TB2g |
dBG G2B dBG | e2A ABA c2e :: G2g gdB gdB | G2g gdB d2e | G2g gdB gdB | a2A ABA c2e ::
dBG TB2e dBg | dBG TB2g d2b | dBG TB2g dBg | (f/g/a)A ABA c2e :: g3 ege dBd | g3 gbg faf |
g3 ege dBd | e2A ABA c2e :: GBd Bdg dgb | GBd Bdg Afa | GBd Bdg dgb |
a2A ABA c2e :: BGG dGG eGG | BGG dGG Bgg | BGG dGG eGG | a2A ABA c2e :: gdd edd Bdd |
gfg efg afd | gdd edd Bdd | e2A ABA c2e :: dBd g2e f2d | g2B BcB d2e |
dBd (g2e) (f2d) | e2A ABA c2e :: dBG G2g B2g | dBG G2g A2g | dBG G2g e(fg/e/) | (f/g/a)A ABA c2e :| 
